icons/sigma/sigma.svg

<svg width="14" height="14" viewBox="0 0 14 14" fill="none" xmlns="http://www.w3.org/2000/svg">
<path d="M10.6012 3.50977C10.8289 3.55651 11.0006 3.75849 11.0006 4C11.0006 4.24151 10.8289 4.44349 10.6012 4.49023L10.5006 4.5H8.66467C9.39433 5.29264 9.70931 6.45265 9.32971 7.5918L9.06897 8.37402C8.64578 9.64345 7.45689 10.5 6.11878 10.5C3.99738 10.4994 2.49895 8.4209 3.16956 6.4082L3.4303 5.62598C3.85342 4.35661 5.04249 3.50016 6.38049 3.5H10.5006L10.6012 3.50977ZM6.38049 4.5C5.47292 4.50016 4.66653 5.08136 4.37952 5.94238L4.11878 6.72461C3.66401 8.08978 4.67994 9.49944 6.11878 9.5C7.02646 9.5 7.83267 8.9187 8.11975 8.05762L8.38049 7.27539C8.83539 5.91007 7.81957 4.50032 6.38049 4.5Z" fill="red"/>
</svg>

<svg xmlns="http://www.w3.org/2000/svg" width="14" height="14" fill="none" viewBox="0 0 14 14"><path fill="red" d="M10.601 3.51a.501.501 0 0 1 0 .98l-.1.01H8.665a3.1 3.1 0 0 1 .665 3.092l-.261.782a3.11 3.11 0 0 1-5.9-1.966l.261-.782A3.11 3.11 0 0 1 6.38 3.5h4.12zm-4.22.99A2.11 2.11 0 0 0 4.38 5.942l-.261.783a2.109 2.109 0 0 0 4 1.333l.261-.783a2.11 2.11 0 0 0-2-2.775"/></svg>
